X: 18355
T: Humours Of Whiskey, The
R: slip jig
M: 9/8
K: Eminor
BcA BEE BEE|BcA BEE FED|BcA BEE BEE|FAA ABG FED|
BcA BEE BEE|BcA BEE FED|BcA BEE BEE|FAA ABG FED||
G2A B2A BcA|G3 Bcd ecA|G2A BcA Bcd|ecA A2G FED|
G2A BcA BcA|G3 Bcd ecA|G2A BcA Bcd|ecA A2G FED||

